images/content/johnson-solids/metabidiminished-icosahedron.svg

<?xml version="1.0" encoding="UTF-8"?>
<svg xmlns="http://www.w3.org/2000/svg" xmlns:xlink="http://www.w3.org/1999/xlink" width="190.41pt" height="189.08pt" viewBox="0 0 190.41 189.08" version="1.2">
<defs>
<clipPath id="clip1">
  <path d="M 0.167969 46 L 63 46 L 63 164 L 0.167969 164 Z M 0.167969 46 "/>
</clipPath>
<clipPath id="clip2">
  <path d="M 0.167969 46 L 64 46 L 64 164 L 0.167969 164 Z M 0.167969 46 "/>
</clipPath>
<clipPath id="clip3">
  <path d="M 0.167969 0 L 97 0 L 97 102 L 0.167969 102 Z M 0.167969 0 "/>
</clipPath>
<clipPath id="clip4">
  <path d="M 96 0 L 189.65625 0 L 189.65625 83 L 96 83 Z M 96 0 "/>
</clipPath>
<clipPath id="clip5">
  <path d="M 18 163 L 128 163 L 128 188.164062 L 18 188.164062 Z M 18 163 "/>
</clipPath>
<clipPath id="clip6">
  <path d="M 111 11 L 189.65625 11 L 189.65625 188 L 111 188 Z M 111 11 "/>
</clipPath>
<clipPath id="clip7">
  <path d="M 170 11 L 189.65625 11 L 189.65625 83 L 170 83 Z M 170 11 "/>
</clipPath>
<clipPath id="clip8">
  <path d="M 111 81 L 172 81 L 172 188.164062 L 111 188.164062 Z M 111 81 "/>
</clipPath>
<clipPath id="clip9">
  <path d="M 0.167969 0 L 97 0 L 97 96 L 0.167969 96 Z M 0.167969 0 "/>
</clipPath>
<clipPath id="clip10">
  <path d="M 24 0 L 189.65625 0 L 189.65625 96 L 24 96 Z M 24 0 "/>
</clipPath>
<clipPath id="clip11">
  <path d="M 96 0 L 189.65625 0 L 189.65625 13 L 96 13 Z M 96 0 "/>
</clipPath>
<clipPath id="clip12">
  <path d="M 0.167969 46 L 25 46 L 25 164 L 0.167969 164 Z M 0.167969 46 "/>
</clipPath>
<clipPath id="clip13">
  <path d="M 18 95 L 112 95 L 112 188.164062 L 18 188.164062 Z M 18 95 "/>
</clipPath>
<clipPath id="clip14">
  <path d="M 24 11 L 189.65625 11 L 189.65625 96 L 24 96 Z M 24 11 "/>
</clipPath>
<clipPath id="clip15">
  <path d="M 111 11 L 189.65625 11 L 189.65625 188 L 111 188 Z M 111 11 "/>
</clipPath>
<clipPath id="clip16">
  <path d="M 111 11 L 189.65625 11 L 189.65625 188.164062 L 111 188.164062 Z M 111 11 "/>
</clipPath>
<clipPath id="clip17">
  <path d="M 24 72 L 154 72 L 154 188.164062 L 24 188.164062 Z M 24 72 "/>
</clipPath>
</defs>
<g id="surface1">
<path style=" stroke:none;fill-rule:nonzero;fill:rgb(71.994019%,64.448547%,72.608948%);fill-opacity:1;" d="M 170.75 82.265625 L 127.089844 181.851562 L 62.851562 101.203125 L 170.75 82.265625 "/>
<path style="fill:none;stroke-width:7.46;stroke-linecap:round;stroke-linejoin:round;stroke:rgb(13.729858%,12.159729%,12.548828%);stroke-opacity:1;stroke-miterlimit:10;" d="M 1714.125767 1064.14098 L 1275.399847 63.436087 L 629.891415 873.844545 Z M 1714.125767 1064.14098 " transform="matrix(0.0995158,0,0,-0.0995158,0.167421,188.164455)"/>
<path style=" stroke:none;fill-rule:nonzero;fill:rgb(72.781372%,61.37085%,65.715027%);fill-opacity:1;" d="M 170.75 82.265625 L 62.851562 101.203125 L 96.582031 0.375 L 170.75 82.265625 "/>
<path style="fill:none;stroke-width:7.46;stroke-linecap:round;stroke-linejoin:round;stroke:rgb(13.729858%,12.159729%,12.548828%);stroke-opacity:1;stroke-miterlimit:10;" d="M 1714.125767 1064.14098 L 629.891415 873.844545 L 968.837314 1887.031754 Z M 1714.125767 1064.14098 " transform="matrix(0.0995158,0,0,-0.0995158,0.167421,188.164455)"/>
<g clip-path="url(#clip1)" clip-rule="nonzero">
<path style=" stroke:none;fill-rule:nonzero;fill:rgb(88.43689%,77.340698%,71.012878%);fill-opacity:1;" d="M 0.539062 46.609375 L 62.851562 101.203125 L 19.339844 163.5 L 0.539062 46.609375 "/>
</g>
<g clip-path="url(#clip2)" clip-rule="nonzero">
<path style="fill:none;stroke-width:7.46;stroke-linecap:round;stroke-linejoin:round;stroke:rgb(13.729858%,12.159729%,12.548828%);stroke-opacity:1;stroke-miterlimit:10;" d="M 3.734497 1422.438394 L 629.891415 873.844545 L 192.657093 247.844637 Z M 3.734497 1422.438394 " transform="matrix(0.0995158,0,0,-0.0995158,0.167421,188.164455)"/>
</g>
<g clip-path="url(#clip3)" clip-rule="nonzero">
<path style=" stroke:none;fill-rule:nonzero;fill:rgb(81.015015%,64.553833%,61.418152%);fill-opacity:1;" d="M 0.539062 46.609375 L 96.582031 0.375 L 62.851562 101.203125 L 0.539062 46.609375 "/>
<path style="fill:none;stroke-width:7.46;stroke-linecap:round;stroke-linejoin:round;stroke:rgb(13.729858%,12.159729%,12.548828%);stroke-opacity:1;stroke-miterlimit:10;" d="M 3.734497 1422.438394 L 968.837314 1887.031754 L 629.891415 873.844545 Z M 3.734497 1422.438394 " transform="matrix(0.0995158,0,0,-0.0995158,0.167421,188.164455)"/>
</g>
<path style=" stroke:none;fill-rule:nonzero;fill:rgb(79.196167%,75.238037%,80.686951%);fill-opacity:1;" d="M 62.851562 101.203125 L 127.089844 181.851562 L 19.339844 163.5 L 62.851562 101.203125 "/>
<path style="fill:none;stroke-width:7.46;stroke-linecap:round;stroke-linejoin:round;stroke:rgb(13.729858%,12.159729%,12.548828%);stroke-opacity:1;stroke-miterlimit:10;" d="M 629.891415 873.844545 L 1275.399847 63.436087 L 192.657093 247.844637 Z M 629.891415 873.844545 " transform="matrix(0.0995158,0,0,-0.0995158,0.167421,188.164455)"/>
<g clip-path="url(#clip4)" clip-rule="nonzero">
<path style=" stroke:none;fill-rule:nonzero;fill:rgb(61.412048%,48.272705%,54.150391%);fill-opacity:1;" d="M 189.289062 11.738281 L 170.75 82.265625 L 96.582031 0.375 L 189.289062 11.738281 "/>
<path style="fill:none;stroke-width:7.46;stroke-linecap:round;stroke-linejoin:round;stroke:rgb(13.729858%,12.159729%,12.548828%);stroke-opacity:1;stroke-miterlimit:10;" d="M 1900.418441 1772.846042 L 1714.125767 1064.14098 L 968.837314 1887.031754 Z M 1900.418441 1772.846042 " transform="matrix(0.0995158,0,0,-0.0995158,0.167421,188.164455)"/>
</g>
<path style=" stroke:none;fill-rule:nonzero;fill:rgb(44.212341%,71.833801%,86.125183%);fill-opacity:1;" d="M 19.339844 163.5 L 127.089844 181.851562 L 111.40625 187.792969 L 19.339844 163.5 "/>
<g clip-path="url(#clip5)" clip-rule="nonzero">
<path style="fill:none;stroke-width:7.46;stroke-linecap:round;stroke-linejoin:round;stroke:rgb(13.729858%,12.159729%,12.548828%);stroke-opacity:1;stroke-miterlimit:10;" d="M 192.657093 247.844637 L 1275.399847 63.436087 L 1117.800799 3.732935 Z M 192.657093 247.844637 " transform="matrix(0.0995158,0,0,-0.0995158,0.167421,188.164455)"/>
</g>
<g clip-path="url(#clip6)" clip-rule="nonzero">
<path style=" stroke:none;fill-rule:nonzero;fill:rgb(89.767456%,59.519958%,18.177795%);fill-opacity:1;" d="M 170.75 82.265625 L 189.289062 11.738281 L 111.40625 187.792969 "/>
</g>
<g clip-path="url(#clip7)" clip-rule="nonzero">
<path style="fill:none;stroke-width:7.46;stroke-linecap:round;stroke-linejoin:round;stroke:rgb(13.729858%,12.159729%,12.548828%);stroke-opacity:1;stroke-miterlimit:10;" d="M 1714.125767 1064.14098 L 1900.418441 1772.846042 " transform="matrix(0.0995158,0,0,-0.0995158,0.167421,188.164455)"/>
</g>
<path style=" stroke:none;fill-rule:nonzero;fill:rgb(89.767456%,59.519958%,18.177795%);fill-opacity:1;" d="M 111.40625 187.792969 L 127.089844 181.851562 L 170.75 82.265625 "/>
<g clip-path="url(#clip8)" clip-rule="nonzero">
<path style="fill:none;stroke-width:7.46;stroke-linecap:round;stroke-linejoin:round;stroke:rgb(13.729858%,12.159729%,12.548828%);stroke-opacity:1;stroke-miterlimit:10;" d="M 1117.800799 3.732935 L 1275.399847 63.436087 L 1714.125767 1064.14098 " transform="matrix(0.0995158,0,0,-0.0995158,0.167421,188.164455)"/>
</g>
<g clip-path="url(#clip9)" clip-rule="nonzero">
<path style="fill-rule:nonzero;fill:rgb(62.504578%,65.594482%,81.832886%);fill-opacity:1;stroke-width:7.46;stroke-linecap:round;stroke-linejoin:round;stroke:rgb(13.729858%,12.159729%,12.548828%);stroke-opacity:1;stroke-miterlimit:10;" d="M 968.837314 1887.031754 L 3.734497 1422.438394 L 244.745247 931.977593 " transform="matrix(0.0995158,0,0,-0.0995158,0.167421,188.164455)"/>
</g>
<g clip-path="url(#clip10)" clip-rule="nonzero">
<path style=" stroke:none;fill-rule:nonzero;fill:rgb(62.504578%,65.594482%,81.832886%);fill-opacity:1;" d="M 189.289062 11.738281 L 96.582031 0.375 L 24.523438 95.417969 "/>
</g>
<g clip-path="url(#clip11)" clip-rule="nonzero">
<path style="fill:none;stroke-width:7.46;stroke-linecap:round;stroke-linejoin:round;stroke:rgb(13.729858%,12.159729%,12.548828%);stroke-opacity:1;stroke-miterlimit:10;" d="M 1900.418441 1772.846042 L 968.837314 1887.031754 " transform="matrix(0.0995158,0,0,-0.0995158,0.167421,188.164455)"/>
</g>
<g clip-path="url(#clip12)" clip-rule="nonzero">
<path style=" stroke:none;fill-rule:nonzero;fill:rgb(28.642273%,25.120544%,34.246826%);fill-opacity:1;" d="M 24.523438 95.417969 L 0.539062 46.609375 L 19.339844 163.5 L 24.523438 95.417969 "/>
<path style="fill:none;stroke-width:7.46;stroke-linecap:round;stroke-linejoin:round;stroke:rgb(13.729858%,12.159729%,12.548828%);stroke-opacity:1;stroke-miterlimit:10;" d="M 244.745247 931.977593 L 3.734497 1422.438394 L 192.657093 247.844637 Z M 244.745247 931.977593 " transform="matrix(0.0995158,0,0,-0.0995158,0.167421,188.164455)"/>
</g>
<path style=" stroke:none;fill-rule:nonzero;fill:rgb(56.228638%,42.619324%,48.361206%);fill-opacity:1;" d="M 111.40625 187.792969 L 24.523438 95.417969 L 19.339844 163.5 L 111.40625 187.792969 "/>
<g clip-path="url(#clip13)" clip-rule="nonzero">
<path style="fill:none;stroke-width:7.46;stroke-linecap:round;stroke-linejoin:round;stroke:rgb(13.729858%,12.159729%,12.548828%);stroke-opacity:1;stroke-miterlimit:10;" d="M 1117.800799 3.732935 L 244.745247 931.977593 L 192.657093 247.844637 Z M 1117.800799 3.732935 " transform="matrix(0.0995158,0,0,-0.0995158,0.167421,188.164455)"/>
</g>
<g clip-path="url(#clip14)" clip-rule="nonzero">
<path style="fill-rule:nonzero;fill:rgb(62.504578%,65.594482%,81.832886%);fill-opacity:1;stroke-width:7.46;stroke-linecap:round;stroke-linejoin:round;stroke:rgb(13.729858%,12.159729%,12.548828%);stroke-opacity:1;stroke-miterlimit:10;" d="M 244.745247 931.977593 L 1535.526596 1160.780795 L 1900.418441 1772.846042 " transform="matrix(0.0995158,0,0,-0.0995158,0.167421,188.164455)"/>
</g>
<g clip-path="url(#clip15)" clip-rule="nonzero">
<path style=" stroke:none;fill-rule:nonzero;fill:rgb(89.767456%,59.519958%,18.177795%);fill-opacity:1;" d="M 189.289062 11.738281 L 152.976562 72.648438 L 111.40625 187.792969 "/>
</g>
<g clip-path="url(#clip16)" clip-rule="nonzero">
<path style="fill:none;stroke-width:7.46;stroke-linecap:round;stroke-linejoin:round;stroke:rgb(13.729858%,12.159729%,12.548828%);stroke-opacity:1;stroke-miterlimit:10;" d="M 1900.418441 1772.846042 L 1535.526596 1160.780795 L 1117.800799 3.732935 " transform="matrix(0.0995158,0,0,-0.0995158,0.167421,188.164455)"/>
</g>
<path style=" stroke:none;fill-rule:nonzero;fill:rgb(72.477722%,60.682678%,64.926147%);fill-opacity:1;" d="M 111.40625 187.792969 L 152.976562 72.648438 L 24.523438 95.417969 L 111.40625 187.792969 "/>
<g clip-path="url(#clip17)" clip-rule="nonzero">
<path style="fill:none;stroke-width:7.46;stroke-linecap:round;stroke-linejoin:round;stroke:rgb(13.729858%,12.159729%,12.548828%);stroke-opacity:1;stroke-miterlimit:10;" d="M 1117.800799 3.732935 L 1535.526596 1160.780795 L 244.745247 931.977593 Z M 1117.800799 3.732935 " transform="matrix(0.0995158,0,0,-0.0995158,0.167421,188.164455)"/>
</g>
</g>
</svg>

<svg xmlns="http://www.w3.org/2000/svg" width="253.88" height="252.107" viewBox="0 0 190.41 189.08" version="1.2"><defs><clipPath id="a"><path d="M.168 46H63v118H.168Zm0 0"/></clipPath><clipPath id="b"><path d="M.168 46H64v118H.168Zm0 0"/></clipPath><clipPath id="c"><path d="M.168 0H97v102H.168Zm0 0"/></clipPath><clipPath id="d"><path d="M96 0h93.656v83H96Zm0 0"/></clipPath><clipPath id="e"><path d="M18 163h110v25.164H18Zm0 0"/></clipPath><clipPath id="f"><path d="M111 11h78.656v177H111Zm0 0"/></clipPath><clipPath id="g"><path d="M170 11h19.656v72H170Zm0 0"/></clipPath><clipPath id="h"><path d="M111 81h61v107.164h-61Zm0 0"/></clipPath><clipPath id="i"><path d="M.168 0H97v96H.168Zm0 0"/></clipPath><clipPath id="j"><path d="M24 0h165.656v96H24Zm0 0"/></clipPath><clipPath id="k"><path d="M96 0h93.656v13H96Zm0 0"/></clipPath><clipPath id="l"><path d="M.168 46H25v118H.168Zm0 0"/></clipPath><clipPath id="m"><path d="M18 95h94v93.164H18Zm0 0"/></clipPath><clipPath id="n"><path d="M24 11h165.656v85H24Zm0 0"/></clipPath><clipPath id="o"><path d="M111 11h78.656v177H111Zm0 0"/></clipPath><clipPath id="p"><path d="M111 11h78.656v177.164H111Zm0 0"/></clipPath><clipPath id="q"><path d="M24 72h130v116.164H24Zm0 0"/></clipPath></defs><path style="stroke:none;fill-rule:nonzero;fill:#b8a4b9;fill-opacity:1" d="m170.75 82.266-43.66 99.586-64.238-80.649L170.75 82.266"/><path style="fill:none;stroke-width:7.46;stroke-linecap:round;stroke-linejoin:round;stroke:#231f20;stroke-opacity:1;stroke-miterlimit:10" d="M1714.126 1064.141 1275.4 63.436 629.89 873.845Zm0 0" transform="matrix(.09952 0 0 -.09952 .167 188.164)"/><path style="stroke:none;fill-rule:nonzero;fill:#ba9ca8;fill-opacity:1" d="M170.75 82.266 62.852 101.203 96.582.375l74.168 81.89"/><path style="fill:none;stroke-width:7.46;stroke-linecap:round;stroke-linejoin:round;stroke:#231f20;stroke-opacity:1;stroke-miterlimit:10" d="M1714.126 1064.141 629.89 873.845l338.946 1013.187Zm0 0" transform="matrix(.09952 0 0 -.09952 .167 188.164)"/><g clip-path="url(#a)"><path style="stroke:none;fill-rule:nonzero;fill:#e2c5b5;fill-opacity:1" d="m.54 46.61 62.312 54.593L19.34 163.5.54 46.61"/></g><g clip-path="url(#b)"><path style="fill:none;stroke-width:7.46;stroke-linecap:round;stroke-linejoin:round;stroke:#231f20;stroke-opacity:1;stroke-miterlimit:10" d="m3.734 1422.438 626.157-548.593-437.234-626Zm0 0" transform="matrix(.09952 0 0 -.09952 .167 188.164)"/></g><g clip-path="url(#c)"><path style="stroke:none;fill-rule:nonzero;fill:#cfa59d;fill-opacity:1" d="M.54 46.61 96.581.374l-33.73 100.828L.539 46.61"/><path style="fill:none;stroke-width:7.46;stroke-linecap:round;stroke-linejoin:round;stroke:#231f20;stroke-opacity:1;stroke-miterlimit:10" d="m3.734 1422.438 965.103 464.594L629.891 873.845Zm0 0" transform="matrix(.09952 0 0 -.09952 .167 188.164)"/></g><path style="stroke:none;fill-rule:nonzero;fill:#cac0ce;fill-opacity:1" d="m62.852 101.203 64.238 80.649L19.34 163.5l43.512-62.297"/><path style="fill:none;stroke-width:7.46;stroke-linecap:round;stroke-linejoin:round;stroke:#231f20;stroke-opacity:1;stroke-miterlimit:10" d="M629.891 873.845 1275.4 63.436 192.657 247.845Zm0 0" transform="matrix(.09952 0 0 -.09952 .167 188.164)"/><g clip-path="url(#d)"><path style="stroke:none;fill-rule:nonzero;fill:#9d7b8a;fill-opacity:1" d="m189.29 11.738-18.54 70.528L96.582.375l92.707 11.363"/><path style="fill:none;stroke-width:7.46;stroke-linecap:round;stroke-linejoin:round;stroke:#231f20;stroke-opacity:1;stroke-miterlimit:10" d="m1900.418 1772.846-186.292-708.705-745.289 822.89Zm0 0" transform="matrix(.09952 0 0 -.09952 .167 188.164)"/></g><path style="stroke:none;fill-rule:nonzero;fill:#71b7dc;fill-opacity:1" d="m19.34 163.5 107.75 18.352-15.684 5.941L19.34 163.5"/><g clip-path="url(#e)"><path style="fill:none;stroke-width:7.46;stroke-linecap:round;stroke-linejoin:round;stroke:#231f20;stroke-opacity:1;stroke-miterlimit:10" d="M192.657 247.845 1275.4 63.436 1117.8 3.733Zm0 0" transform="matrix(.09952 0 0 -.09952 .167 188.164)"/></g><g clip-path="url(#f)"><path style="stroke:none;fill-rule:nonzero;fill:#e5982e;fill-opacity:1" d="m170.75 82.266 18.54-70.528-77.884 176.055"/></g><g clip-path="url(#g)"><path style="fill:none;stroke-width:7.46;stroke-linecap:round;stroke-linejoin:round;stroke:#231f20;stroke-opacity:1;stroke-miterlimit:10" d="m1714.126 1064.141 186.292 708.705" transform="matrix(.09952 0 0 -.09952 .167 188.164)"/></g><path style="stroke:none;fill-rule:nonzero;fill:#e5982e;fill-opacity:1" d="m111.406 187.793 15.684-5.941 43.66-99.586"/><g clip-path="url(#h)"><path style="fill:none;stroke-width:7.46;stroke-linecap:round;stroke-linejoin:round;stroke:#231f20;stroke-opacity:1;stroke-miterlimit:10" d="m1117.8 3.733 157.6 59.703 438.726 1000.705" transform="matrix(.09952 0 0 -.09952 .167 188.164)"/></g><g clip-path="url(#i)"><path style="fill-rule:nonzero;fill:#9fa7d1;fill-opacity:1;stroke-width:7.46;stroke-linecap:round;stroke-linejoin:round;stroke:#231f20;stroke-opacity:1;stroke-miterlimit:10" d="M968.837 1887.032 3.734 1422.438l241.011-490.46" transform="matrix(.09952 0 0 -.09952 .167 188.164)"/></g><g clip-path="url(#j)"><path style="stroke:none;fill-rule:nonzero;fill:#9fa7d1;fill-opacity:1" d="M189.29 11.738 96.581.375 24.523 95.418"/></g><g clip-path="url(#k)"><path style="fill:none;stroke-width:7.46;stroke-linecap:round;stroke-linejoin:round;stroke:#231f20;stroke-opacity:1;stroke-miterlimit:10" d="m1900.418 1772.846-931.58 114.186" transform="matrix(.09952 0 0 -.09952 .167 188.164)"/></g><g clip-path="url(#l)"><path style="stroke:none;fill-rule:nonzero;fill:#494057;fill-opacity:1" d="M24.523 95.418.54 46.609 19.34 163.5l5.184-68.082"/><path style="fill:none;stroke-width:7.46;stroke-linecap:round;stroke-linejoin:round;stroke:#231f20;stroke-opacity:1;stroke-miterlimit:10" d="m244.745 931.978-241.01 490.46L192.656 247.845Zm0 0" transform="matrix(.09952 0 0 -.09952 .167 188.164)"/></g><path style="stroke:none;fill-rule:nonzero;fill:#8f6d7b;fill-opacity:1" d="M111.406 187.793 24.523 95.418 19.34 163.5l92.066 24.293"/><g clip-path="url(#m)"><path style="fill:none;stroke-width:7.46;stroke-linecap:round;stroke-linejoin:round;stroke:#231f20;stroke-opacity:1;stroke-miterlimit:10" d="M1117.8 3.733 244.746 931.978l-52.088-684.133Zm0 0" transform="matrix(.09952 0 0 -.09952 .167 188.164)"/></g><g clip-path="url(#n)"><path style="fill-rule:nonzero;fill:#9fa7d1;fill-opacity:1;stroke-width:7.46;stroke-linecap:round;stroke-linejoin:round;stroke:#231f20;stroke-opacity:1;stroke-miterlimit:10" d="m244.745 931.978 1290.782 228.803 364.891 612.065" transform="matrix(.09952 0 0 -.09952 .167 188.164)"/></g><g clip-path="url(#o)"><path style="stroke:none;fill-rule:nonzero;fill:#e5982e;fill-opacity:1" d="m189.29 11.738-36.313 60.91-41.57 115.145"/></g><g clip-path="url(#p)"><path style="fill:none;stroke-width:7.46;stroke-linecap:round;stroke-linejoin:round;stroke:#231f20;stroke-opacity:1;stroke-miterlimit:10" d="m1900.418 1772.846-364.891-612.065L1117.8 3.733" transform="matrix(.09952 0 0 -.09952 .167 188.164)"/></g><path style="stroke:none;fill-rule:nonzero;fill:#b99ba6;fill-opacity:1" d="m111.406 187.793 41.57-115.145-128.453 22.77 86.883 92.375"/><g clip-path="url(#q)"><path style="fill:none;stroke-width:7.46;stroke-linecap:round;stroke-linejoin:round;stroke:#231f20;stroke-opacity:1;stroke-miterlimit:10" d="m1117.8 3.733 417.727 1157.048L244.745 931.978Zm0 0" transform="matrix(.09952 0 0 -.09952 .167 188.164)"/></g></svg>
